X: 1
T: Doonagore, The
Z: jmeme
S: https://thesession.org/tunes/2816#setting41067
R: reel
M: 4/4
L: 1/8
K: Gmaj
|:DG ~G2 FGAc|BG ~G2 ABcA|d2 cd BG ~G|BdcA ~G3 E|
DG ~G2 FGAc|BG ~G2 ABcA|dG cd BG ~G2|1 : BdcA [Gd]3 E:|2 : BdcA G2 (3ABc||
g3 e fd ~d|fdgd fd ~d|g3 e fd ~d|defd g3 f|
gbag fd ~d|BG ~G2 ABcA|dG cd BG ~G2|1 : BdcA G2 (3ABc:|2 : BdcA [Gd]3 E||

